;FLAVOR:Marlin
;TIME:1580
;Filament used: 1.33658m
;Layer height: 0.28
;MINX:97.2
;MINY:49.957
;MINZ:0.28
;MAXX:137.8
;MAXY:150.548
;MAXZ:7
;Generated with Cura_SteamEngine 4.8.0
M140 S65
M105
M190 S65
M104 S200
M105
M109 S200
M82 ;absolute extrusion mode
; Ender 3 Custom Start G-code
G92 E0 ; Reset Extruder
G28 ; Home all axes
G1 Z2.0 F3000 ; Move Z Axis up little to prevent scratching of Heat Bed
G1 X0.1 Y20 Z0.3 F5000.0 ; Move to start position
G1 X0.1 Y200.0 Z0.3 F1500.0 E15 ; Draw the first line
G1 X0.4 Y200.0 Z0.3 F5000.0 ; Move to side a little
G1 X0.4 Y20 Z0.3 F1500.0 E30 ; Draw the second line
G92 E0 ; Reset Extruder
G1 Z2.0 F3000 ; Move Z Axis up little to prevent scratching of Heat Bed
G1 X5 Y20 Z0.3 F5000.0 ; Move over to prevent blob squish
G92 E0
G92 E0
G1 F1500 E-6.5
;LAYER_COUNT:25
;LAYER:0
M107
G0 F6000 X98.533 Y55.19 Z0.28
;TYPE:SKIRT
G1 F1500 E0
G1 F1200 X98.679 Y54.94 E0.01348
G1 X99.169 Y54.203 E0.05469
G1 X99.344 Y53.969 E0.0683
G1 X99.93 Y53.273 E0.11066
G1 X100.131 Y53.061 E0.12427
G1 X100.814 Y52.423 E0.16779
G1 X101.036 Y52.239 E0.18121
G1 X101.742 Y51.717 E0.2221
G1 X101.985 Y51.558 E0.23562
G1 X102.768 Y51.108 E0.27767
G1 X103.028 Y50.978 E0.29121
G1 X103.859 Y50.622 E0.3333
G1 X104.135 Y50.522 E0.34697
G1 X105.009 Y50.262 E0.38943
G1 X105.29 Y50.196 E0.40287
G1 X106.22 Y50.036 E0.44681
G1 X106.511 Y50.004 E0.46045
G1 X107.391 Y49.957 E0.50148
G1 X107.679 Y49.958 E0.51489
G1 X108.554 Y50.01 E0.55571
G1 X108.846 Y50.044 E0.5694
G1 X109.791 Y50.214 E0.6141
G1 X110.07 Y50.282 E0.62748
G1 X110.912 Y50.538 E0.66846
G1 X111.187 Y50.639 E0.6821
G1 X112.008 Y50.995 E0.72377
G1 X112.266 Y51.125 E0.73722
G1 X113.07 Y51.593 E0.78054
G1 X113.314 Y51.755 E0.79417
G1 X114.036 Y52.297 E0.83621
G1 X114.256 Y52.483 E0.84963
G1 X114.906 Y53.1 E0.89136
G1 X115.106 Y53.313 E0.90496
G1 X115.683 Y54.002 E0.94681
G1 X115.856 Y54.235 E0.96032
G1 X116.359 Y55.004 E1.00311
G1 X116.503 Y55.255 E1.01659
G1 X116.915 Y56.083 E1.05965
G1 X117.029 Y56.351 E1.07321
G1 X117.325 Y57.173 E1.11389
G1 X117.408 Y57.451 E1.1274
G1 X117.623 Y58.369 E1.17131
G1 X117.672 Y58.656 E1.18486
G1 X117.769 Y59.5 E1.22442
G1 X117.786 Y59.782 E1.23758
G1 X117.8 Y60.251 E1.25942
G1 X117.8 Y74.267 E1.91207
G1 X131.287 Y77.882 E2.56225
G1 X132.039 Y78.125 E2.59905
G1 X132.496 Y78.315 E2.62209
G1 X132.782 Y78.445 E2.63672
G1 X133.483 Y78.808 E2.67348
G1 X134.144 Y79.24 E2.71025
G1 X134.913 Y79.879 E2.75681
G1 X135.152 Y80.105 E2.77212
G1 X135.698 Y80.676 E2.80891
G1 X136.183 Y81.299 E2.84567
G1 X136.65 Y82.054 E2.88701
G1 X136.804 Y82.338 E2.90205
G1 X137.145 Y83.05 E2.93881
G1 X137.412 Y83.793 E2.97558
G1 X137.642 Y84.782 E3.02286
G1 X137.694 Y85.096 E3.03768
G1 X137.784 Y85.88 E3.07442
G1 X137.799 Y86.367 E3.09711
G1 X137.8 Y89.48 E3.24207
G1 X137.76 Y90.269 E3.27885
G1 X137.693 Y90.773 E3.30253
G1 X137.638 Y91.101 E3.31801
G1 X137.468 Y91.872 E3.35478
G1 X137.412 Y92.075 E3.36458
G1 X137.642 Y93.064 E3.41186
G1 X137.694 Y93.378 E3.42668
G1 X137.784 Y94.162 E3.46343
G1 X137.799 Y94.649 E3.48612
G1 X137.8 Y97.763 E3.63112
G1 X137.76 Y98.552 E3.6679
G1 X137.692 Y99.06 E3.69177
G1 X137.637 Y99.387 E3.70721
G1 X137.467 Y100.158 E3.74397
G1 X137.219 Y100.908 E3.78076
G1 X136.786 Y101.839 E3.82857
G1 X136.625 Y102.133 E3.84418
G1 X136.211 Y102.806 E3.88097
G1 X135.732 Y103.433 E3.91771
G1 X135.032 Y104.157 E3.9646
G1 X134.789 Y104.378 E3.9799
G1 X134.179 Y104.88 E4.01668
G1 X133.521 Y105.316 E4.05344
G1 X132.608 Y105.78 E4.10113
G1 X132.304 Y105.91 E4.11652
G1 X131.563 Y106.183 E4.15329
G1 X130.798 Y106.38 E4.19008
G1 X129.801 Y106.518 E4.23694
G1 X129.47 Y106.542 E4.2524
G1 X128.681 Y106.559 E4.28914
G1 X127.564 Y106.446 E4.34142
G1 X127.398 Y106.417 E4.34927
G1 X126.721 Y106.267 E4.38156
G1 X117.8 Y103.877 E4.8116
G1 X117.8 Y140.26 E6.50575
G1 X117.785 Y140.745 E6.52834
G1 X117.767 Y141.034 E6.54183
G1 X117.659 Y141.93 E6.58385
G1 X117.607 Y142.219 E6.59752
G1 X117.397 Y143.092 E6.63933
G1 X117.314 Y143.367 E6.65271
G1 X117.001 Y144.221 E6.69506
G1 X116.885 Y144.488 E6.70862
G1 X116.473 Y145.302 E6.7511
G1 X116.327 Y145.553 E6.76462
G1 X115.822 Y146.315 E6.80719
G1 X115.647 Y146.548 E6.82076
G1 X115.083 Y147.217 E6.8615
G1 X114.882 Y147.43 E6.87514
G1 X114.186 Y148.082 E6.91955
G1 X113.964 Y148.266 E6.93297
G1 X113.239 Y148.8 E6.9749
G1 X112.996 Y148.958 E6.9884
G1 X112.254 Y149.385 E7.02826
G1 X111.994 Y149.516 E7.04182
G1 X111.118 Y149.892 E7.0862
G1 X110.842 Y149.991 E7.09986
G1 X109.991 Y150.242 E7.14117
G1 X109.71 Y150.308 E7.15461
G1 X108.806 Y150.465 E7.19734
G1 X108.515 Y150.498 E7.21097
G1 X107.609 Y150.548 E7.25323
G1 X107.321 Y150.547 E7.26664
G1 X106.42 Y150.492 E7.30867
G1 X106.128 Y150.457 E7.32236
G1 X105.209 Y150.29 E7.36586
G1 X104.93 Y150.222 E7.37923
G1 X104.111 Y149.974 E7.41907
G1 X103.836 Y149.874 E7.4327
G1 X102.971 Y149.499 E7.4766
G1 X102.711 Y149.367 E7.49018
G1 X101.94 Y148.918 E7.53172
G1 X101.698 Y148.758 E7.54523
G1 X100.964 Y148.208 E7.58794
G1 X100.744 Y148.022 E7.60135
G1 X100.081 Y147.392 E7.64394
G1 X99.881 Y147.178 E7.65758
G1 X99.321 Y146.506 E7.69831
G1 X99.147 Y146.272 E7.71189
G1 X98.634 Y145.488 E7.75552
G1 X98.49 Y145.236 E7.76903
G1 X98.084 Y144.419 E7.81151
G1 X97.97 Y144.151 E7.82507
G1 X97.674 Y143.329 E7.86576
G1 X97.591 Y143.051 E7.87927
G1 X97.373 Y142.111 E7.9242
G1 X97.325 Y141.825 E7.9377
G1 X97.231 Y141.005 E7.97613
G1 X97.214 Y140.724 E7.98924
G1 X97.2 Y140.253 E8.01118
G1 X97.2 Y60.244 E11.73674
G1 X97.215 Y59.757 E11.75943
G1 X97.233 Y59.469 E11.77286
G1 X97.341 Y58.575 E11.81479
G1 X97.393 Y58.286 E11.82847
G1 X97.6 Y57.421 E11.86988
G1 X97.683 Y57.145 E11.8833
G1 X97.999 Y56.283 E11.92605
G1 X98.115 Y56.016 E11.93961
G1 X98.533 Y55.19 E11.98271
G0 F6000 X98.879 Y55.392
G1 F1200 X99.025 Y55.142 E11.9962
G1 X99.489 Y54.442 E12.0353
G1 X99.664 Y54.208 E12.04891
G1 X100.22 Y53.549 E12.08906
G1 X100.421 Y53.337 E12.10266
G1 X101.069 Y52.731 E12.14397
G1 X101.291 Y52.547 E12.1574
G1 X101.961 Y52.052 E12.19619
G1 X102.204 Y51.893 E12.20971
G1 X102.947 Y51.466 E12.24961
G1 X103.207 Y51.336 E12.26315
G1 X103.995 Y50.998 E12.30307
G1 X104.271 Y50.898 E12.31674
G1 X105.1 Y50.651 E12.35702
G1 X105.381 Y50.585 E12.37046
G1 X106.264 Y50.433 E12.41218
G1 X106.555 Y50.401 E12.42581
G1 X107.39 Y50.357 E12.46475
G1 X107.678 Y50.358 E12.47816
G1 X108.508 Y50.408 E12.51688
G1 X108.8 Y50.442 E12.53057
G1 X109.696 Y50.602 E12.57295
G1 X109.975 Y50.67 E12.58632
G1 X110.774 Y50.914 E12.62522
G1 X111.049 Y51.015 E12.63886
G1 X111.828 Y51.353 E12.6784
G1 X112.086 Y51.483 E12.69186
G1 X112.849 Y51.926 E12.73294
G1 X113.093 Y52.088 E12.74658
G1 X113.778 Y52.602 E12.78645
G1 X113.998 Y52.788 E12.79987
G1 X114.615 Y53.374 E12.83949
G1 X114.815 Y53.587 E12.8531
G1 X115.361 Y54.241 E12.89277
G1 X115.534 Y54.474 E12.90628
G1 X116.012 Y55.203 E12.94687
G1 X116.156 Y55.454 E12.96035
G1 X116.547 Y56.239 E13.00118
G1 X116.661 Y56.507 E13.01474
G1 X116.942 Y57.287 E13.05335
G1 X117.025 Y57.565 E13.06686
G1 X117.228 Y58.437 E13.10855
G1 X117.277 Y58.724 E13.12211
G1 X117.37 Y59.524 E13.15961
G1 X117.387 Y59.806 E13.17276
G1 X117.4 Y60.251 E13.19349
G1 X117.4 Y74.574 E13.86043
G1 X131.184 Y78.268 E14.52492
G1 X131.915 Y78.506 E14.56072
G1 X132.33 Y78.679 E14.58165
G1 X132.616 Y78.809 E14.59628
G1 X133.299 Y79.164 E14.63213
G1 X133.941 Y79.587 E14.66792
G1 X134.638 Y80.169 E14.71021
G1 X134.877 Y80.395 E14.72552
G1 X135.408 Y80.952 E14.76136
G1 X135.878 Y81.561 E14.79718
G1 X136.298 Y82.245 E14.83455
G1 X136.452 Y82.529 E14.8496
G1 X136.783 Y83.223 E14.8854
G1 X137.04 Y83.948 E14.92122
G1 X137.248 Y84.847 E14.96418
G1 X137.3 Y85.161 E14.979
G1 X137.386 Y85.925 E15.0148
G1 X137.399 Y86.368 E15.03544
G1 X137.4 Y89.481 E15.18039
G1 X137.36 Y90.249 E15.2162
G1 X137.298 Y90.707 E15.23773
G1 X137.243 Y91.035 E15.25321
G1 X137.077 Y91.786 E15.28903
G1 X136.983 Y92.068 E15.30287
G1 X137.04 Y92.23 E15.31086
G1 X137.248 Y93.129 E15.35383
G1 X137.3 Y93.443 E15.36865
G1 X137.386 Y94.207 E15.40445
G1 X137.399 Y94.65 E15.42509
G1 X137.4 Y97.764 E15.57009
G1 X137.36 Y98.532 E15.6059
G1 X137.297 Y98.993 E15.62756
G1 X137.242 Y99.32 E15.643
G1 X137.076 Y100.071 E15.67882
G1 X136.832 Y100.801 E15.71466
G1 X136.436 Y101.647 E15.75815
G1 X136.275 Y101.941 E15.77376
G1 X135.871 Y102.596 E15.8096
G1 X135.401 Y103.205 E15.84542
G1 X134.763 Y103.862 E15.88806
G1 X134.52 Y104.083 E15.90335
G1 X133.925 Y104.57 E15.93916
G1 X133.282 Y104.993 E15.975
G1 X132.451 Y105.412 E16.01833
G1 X132.147 Y105.542 E16.03373
G1 X131.425 Y105.807 E16.06954
G1 X130.679 Y105.996 E16.10537
G1 X129.772 Y106.119 E16.14799
G1 X129.441 Y106.143 E16.16345
G1 X128.672 Y106.158 E16.19926
G1 X127.633 Y106.052 E16.24789
G1 X127.467 Y106.023 E16.25574
G1 X126.825 Y105.881 E16.28636
G1 X117.4 Y103.355 E16.74071
G1 X117.4 Y140.26 E18.45916
G1 X117.386 Y140.72 E18.48059
G1 X117.368 Y141.009 E18.49408
G1 X117.265 Y141.859 E18.53395
G1 X117.213 Y142.148 E18.54762
G1 X117.014 Y142.976 E18.58727
G1 X116.931 Y143.251 E18.60065
G1 X116.634 Y144.062 E18.64086
G1 X116.518 Y144.329 E18.65442
G1 X116.128 Y145.101 E18.69469
G1 X115.982 Y145.352 E18.70821
G1 X115.502 Y146.075 E18.74862
G1 X115.327 Y146.308 E18.76219
G1 X114.792 Y146.943 E18.80086
G1 X114.591 Y147.156 E18.81449
G1 X113.931 Y147.774 E18.8566
G1 X113.709 Y147.958 E18.87002
G1 X113.021 Y148.465 E18.90982
G1 X112.778 Y148.623 E18.92331
G1 X112.074 Y149.028 E18.96113
G1 X111.814 Y149.159 E18.97469
G1 X110.982 Y149.515 E19.01683
G1 X110.706 Y149.614 E19.03048
G1 X109.9 Y149.853 E19.06963
G1 X109.619 Y149.919 E19.08307
G1 X108.761 Y150.068 E19.12362
G1 X108.47 Y150.101 E19.13726
G1 X107.61 Y150.148 E19.17736
G1 X107.322 Y150.147 E19.19077
G1 X106.467 Y150.094 E19.23066
G1 X106.175 Y150.059 E19.24435
G1 X105.304 Y149.902 E19.28556
G1 X105.025 Y149.834 E19.29894
G1 X104.248 Y149.598 E19.33675
G1 X103.973 Y149.498 E19.35037
G1 X103.152 Y149.142 E19.39204
G1 X102.892 Y149.01 E19.40562
G1 X102.161 Y148.585 E19.44499
G1 X101.919 Y148.425 E19.4585
G1 X101.222 Y147.903 E19.49905
G1 X101.002 Y147.717 E19.51247
G1 X100.374 Y147.119 E19.55284
G1 X100.174 Y146.905 E19.56648
G1 X99.642 Y146.268 E19.60513
G1 X99.468 Y146.034 E19.61871
G1 X98.981 Y145.289 E19.66015
G1 X98.837 Y145.037 E19.67367
G1 X98.452 Y144.263 E19.71392
G1 X98.338 Y143.995 E19.72748
G1 X98.057 Y143.215 E19.76609
G1 X97.974 Y142.937 E19.7796
G1 X97.767 Y142.045 E19.82223
G1 X97.719 Y141.759 E19.83574
G1 X97.631 Y140.981 E19.8722
G1 X97.614 Y140.7 E19.8853
G1 X97.6 Y140.253 E19.90613
G1 X97.6 Y60.244 E23.63168
G1 X97.614 Y59.782 E23.65321
G1 X97.632 Y59.494 E23.66664
G1 X97.735 Y58.646 E23.70642
G1 X97.787 Y58.357 E23.72009
G1 X97.984 Y57.536 E23.75941
G1 X98.067 Y57.26 E23.77283
G1 X98.366 Y56.442 E23.81338
G1 X98.482 Y56.175 E23.82694
G1 X98.879 Y55.392 E23.86781
G0 F6000 X99.224 Y55.594
G1 F1200 X99.37 Y55.344 E23.8813
G1 X99.809 Y54.682 E23.91828
G1 X99.984 Y54.448 E23.93189
G1 X100.51 Y53.824 E23.96989
G1 X100.711 Y53.612 E23.98349
G1 X101.324 Y53.039 E24.02257
G1 X101.546 Y52.855 E24.03599
G1 X102.18 Y52.386 E24.07271
G1 X102.423 Y52.227 E24.08624
G1 X103.126 Y51.824 E24.12397
G1 X103.386 Y51.694 E24.1375
G1 X104.131 Y51.374 E24.17526
G1 X104.407 Y51.274 E24.18893
G1 X105.191 Y51.04 E24.22703
G1 X105.472 Y50.974 E24.24047
G1 X106.308 Y50.831 E24.27996
G1 X106.599 Y50.799 E24.29359
G1 X107.388 Y50.757 E24.33038
G1 X107.676 Y50.758 E24.34379
G1 X108.462 Y50.805 E24.38046
G1 X108.754 Y50.839 E24.39415
G1 X109.602 Y50.991 E24.43426
G1 X109.881 Y51.059 E24.44763
G1 X110.636 Y51.289 E24.48438
G1 X110.911 Y51.39 E24.49803
G1 X111.648 Y51.71 E24.53544
G1 X111.906 Y51.84 E24.54889
G1 X112.628 Y52.259 E24.58776
G1 X112.872 Y52.421 E24.6014
G1 X113.519 Y52.907 E24.63908
G1 X113.739 Y53.093 E24.65249
G1 X114.323 Y53.647 E24.68998
G1 X114.523 Y53.86 E24.70358
G1 X115.04 Y54.479 E24.74114
G1 X115.213 Y54.712 E24.75465
G1 X115.665 Y55.402 E24.79306
G1 X115.809 Y55.653 E24.80653
G1 X116.178 Y56.396 E24.84516
G1 X116.292 Y56.664 E24.85872
G1 X116.558 Y57.401 E24.89521
G1 X116.641 Y57.679 E24.90872
G1 X116.834 Y58.504 E24.94817
G1 X116.883 Y58.791 E24.96173
G1 X116.97 Y59.548 E24.99721
G1 X116.987 Y59.83 E25.01036
G1 X117 Y60.251 E25.02998
G1 X117 Y74.881 E25.71121
G1 X131.08 Y78.655 E26.38998
G1 X131.791 Y78.887 E26.4248
G1 X132.165 Y79.043 E26.44367
G1 X132.451 Y79.173 E26.4583
G1 X133.114 Y79.519 E26.49312
G1 X133.737 Y79.933 E26.52795
G1 X134.363 Y80.46 E26.56606
G1 X134.602 Y80.686 E26.58137
G1 X135.118 Y81.228 E26.61622
G1 X135.572 Y81.822 E26.65103
G1 X135.947 Y82.435 E26.68449
G1 X136.101 Y82.719 E26.69954
G1 X136.421 Y83.395 E26.73436
G1 X136.668 Y84.101 E26.76919
G1 X136.853 Y84.912 E26.80793
G1 X136.905 Y85.226 E26.82275
G1 X136.988 Y85.97 E26.8576
G1 X136.999 Y86.368 E26.87614
G1 X137 Y89.481 E27.0211
G1 X136.96 Y90.228 E27.05593
G1 X136.904 Y90.641 E27.07534
G1 X136.849 Y90.969 E27.09082
G1 X136.686 Y91.699 E27.12565
G1 X136.559 Y92.073 E27.14405
G1 X136.668 Y92.383 E27.15935
G1 X136.853 Y93.194 E27.19808
G1 X136.905 Y93.508 E27.2129
G1 X136.988 Y94.252 E27.24776
G1 X136.999 Y94.65 E27.2663
G1 X137 Y97.764 E27.4113
G1 X136.96 Y98.511 E27.44613
G1 X136.903 Y98.927 E27.46568
G1 X136.848 Y99.254 E27.48113
G1 X136.685 Y99.984 E27.51595
G1 X136.444 Y100.693 E27.55082
G1 X136.085 Y101.455 E27.59005
G1 X135.924 Y101.749 E27.60565
G1 X135.53 Y102.385 E27.64049
G1 X135.07 Y102.976 E27.67536
G1 X134.494 Y103.566 E27.71376
G1 X134.251 Y103.787 E27.72905
G1 X133.671 Y104.26 E27.7639
G1 X133.045 Y104.668 E27.7987
G1 X132.293 Y105.044 E27.83785
G1 X131.989 Y105.174 E27.85324
G1 X131.287 Y105.431 E27.88805
G1 X130.561 Y105.612 E27.92289
G1 X129.743 Y105.72 E27.96131
G1 X129.412 Y105.744 E27.97676
G1 X128.664 Y105.758 E28.0116
G1 X127.701 Y105.658 E28.05668
G1 X127.535 Y105.629 E28.06453
G1 X126.928 Y105.494 E28.09348
G1 X117 Y102.834 E28.57208
G1 X117 Y140.26 E30.31479
G1 X116.986 Y140.695 E30.33506
G1 X116.968 Y140.984 E30.34854
G1 X116.871 Y141.789 E30.3863
G1 X116.819 Y142.078 E30.39997
G1 X116.631 Y142.861 E30.43746
G1 X116.548 Y143.136 E30.45084
G1 X116.267 Y143.902 E30.48883
G1 X116.151 Y144.169 E30.50239
G1 X115.782 Y144.9 E30.54052
G1 X115.636 Y145.151 E30.55404
G1 X115.182 Y145.835 E30.59227
G1 X115.007 Y146.068 E30.60583
G1 X114.501 Y146.668 E30.64238
G1 X114.3 Y146.881 E30.65602
G1 X113.676 Y147.466 E30.69585
G1 X113.454 Y147.65 E30.70927
G1 X112.803 Y148.13 E30.74694
G1 X112.56 Y148.288 E30.76043
G1 X111.894 Y148.67 E30.79618
G1 X111.634 Y148.801 E30.80974
G1 X110.847 Y149.139 E30.84962
G1 X110.571 Y149.238 E30.86328
G1 X109.809 Y149.464 E30.90028
G1 X109.528 Y149.53 E30.91373
G1 X108.716 Y149.67 E30.95209
G1 X108.425 Y149.703 E30.96573
G1 X107.612 Y149.748 E31.00365
G1 X107.324 Y149.747 E31.01706
G1 X106.515 Y149.697 E31.0548
G1 X106.223 Y149.662 E31.06849
G1 X105.398 Y149.513 E31.10753
G1 X105.119 Y149.445 E31.1209
G1 X104.385 Y149.223 E31.15661
G1 X104.11 Y149.123 E31.17023
G1 X103.333 Y148.786 E31.20967
G1 X103.073 Y148.654 E31.22325
G1 X102.381 Y148.251 E31.26054
G1 X102.139 Y148.091 E31.27405
G1 X101.481 Y147.598 E31.31233
G1 X101.261 Y147.412 E31.32574
G1 X100.666 Y146.846 E31.36398
G1 X100.466 Y146.632 E31.37762
G1 X99.963 Y146.029 E31.41419
G1 X99.789 Y145.795 E31.42777
G1 X99.328 Y145.091 E31.46695
G1 X99.184 Y144.839 E31.48046
G1 X98.821 Y144.106 E31.51855
G1 X98.707 Y143.838 E31.53211
G1 X98.441 Y143.101 E31.5686
G1 X98.358 Y142.823 E31.58211
G1 X98.162 Y141.979 E31.62245
G1 X98.114 Y141.693 E31.63596
G1 X98.03 Y140.957 E31.67045
G1 X98.013 Y140.676 E31.68356
G1 X98 Y140.253 E31.70327
G1 X98 Y60.244 E35.42882
G1 X98.014 Y59.807 E35.44918
G1 X98.032 Y59.519 E35.46262
G1 X98.129 Y58.716 E35.50028
G1 X98.181 Y58.427 E35.51395
G1 X98.367 Y57.651 E35.55111
G1 X98.45 Y57.375 E35.56453
G1 X98.733 Y56.602 E35.60286
G1 X98.849 Y56.335 E35.61641
G1 X99.224 Y55.594 E35.65509
G0 F6000 X99.57 Y55.796
G1 F1200 X99.716 Y55.546 E35.66857
G1 X100.13 Y54.921 E35.70347
G1 X100.305 Y54.687 E35.71708
G1 X100.8 Y54.099 E35.75287
G1 X101.001 Y53.887 E35.76647
G1 X101.579 Y53.347 E35.80331
G1 X101.801 Y53.163 E35.81673
G1 X102.399 Y52.721 E35.85136
