;FLAVOR:Marlin
;TIME:2516
;Filament used: 2.65434m
;Layer height: 0.28
;MINX:53.25
;MINY:65.66
;MINZ:0.28
;MAXX:181.75
;MAXY:169.34
;MAXZ:10.92
;Generated with Cura_SteamEngine 4.8.0
M140 S65
M105
M190 S65
M104 S200
M105
M109 S200
M82 ;absolute extrusion mode
; Ender 3 Custom Start G-code
G92 E0 ; Reset Extruder
G28 ; Home all axes
G1 Z2.0 F3000 ; Move Z Axis up little to prevent scratching of Heat Bed
G1 X0.1 Y20 Z0.3 F5000.0 ; Move to start position
G1 X0.1 Y200.0 Z0.3 F1500.0 E15 ; Draw the first line
G1 X0.4 Y200.0 Z0.3 F5000.0 ; Move to side a little
G1 X0.4 Y20 Z0.3 F1500.0 E30 ; Draw the second line
G92 E0 ; Reset Extruder
G1 Z2.0 F3000 ; Move Z Axis up little to prevent scratching of Heat Bed
G1 X5 Y20 Z0.3 F5000.0 ; Move over to prevent blob squish
G92 E0
G92 E0
G1 F1500 E-6.5
;LAYER_COUNT:39
;LAYER:0
M107
G0 F6000 X75.812 Y70.032 Z0.28
;TYPE:SKIRT
G1 F1500 E0
G1 F1200 X76.051 Y69.806 E0.01532
G1 X76.478 Y69.457 E0.041
G1 X77.09 Y69.107 E0.07382
G1 X77.385 Y68.973 E0.08891
G1 X77.975 Y68.762 E0.11809
G1 X80.982 Y67.958 E0.26303
G1 X81.614 Y67.845 E0.29292
G1 X81.938 Y67.815 E0.30807
G1 X82.489 Y67.804 E0.33373
G1 X83.177 Y67.904 E0.36611
G1 X83.497 Y67.981 E0.38143
G1 X83.678 Y68.039 E0.39028
G1 X83.818 Y67.882 E0.40008
G1 X84.057 Y67.657 E0.41536
G1 X84.485 Y67.31 E0.44102
G1 X85.081 Y66.969 E0.47299
G1 X85.376 Y66.834 E0.4881
G1 X85.975 Y66.618 E0.51775
G1 X88.982 Y65.814 E0.66269
G1 X89.614 Y65.701 E0.69258
G1 X89.938 Y65.671 E0.70773
G1 X90.489 Y65.66 E0.73339
G1 X91.177 Y65.76 E0.76577
G1 X91.497 Y65.837 E0.78109
G1 X92.022 Y66.005 E0.80676
G1 X92.661 Y66.334 E0.84023
G1 X92.943 Y66.515 E0.85583
G1 X93.383 Y66.846 E0.88147
G1 X93.875 Y67.362 E0.91467
G1 X94.079 Y67.621 E0.93002
G1 X94.388 Y68.077 E0.95567
G1 X94.69 Y68.743 E0.98972
G1 X94.798 Y69.059 E1.00527
G1 X94.938 Y69.592 E1.03093
G1 X94.988 Y69.963 E1.04836
G1 X95.002 Y70.126 E1.05598
G1 X95.016 Y70.451 E1.07113
G1 X95.017 Y134.552 E4.05594
G1 X95.039 Y135.216 E4.08687
G1 X95.096 Y135.815 E4.11489
G1 X95.192 Y136.407 E4.14282
G1 X95.326 Y136.996 E4.17094
G1 X95.49 Y137.555 E4.19807
G1 X95.703 Y138.142 E4.22715
G1 X95.931 Y138.667 E4.2538
G1 X96.221 Y139.229 E4.28325
G1 X96.527 Y139.742 E4.31106
G1 X96.87 Y140.24 E4.33922
G1 X97.246 Y140.719 E4.36757
G1 X97.621 Y141.142 E4.3939
G1 X98.067 Y141.581 E4.42304
G1 X98.525 Y141.981 E4.45135
G1 X99.007 Y142.348 E4.47956
G1 X99.507 Y142.683 E4.50759
G1 X99.994 Y142.967 E4.53384
G1 X100.576 Y143.258 E4.56414
G1 X101.113 Y143.485 E4.59128
G1 X101.65 Y143.674 E4.61779
G1 X102.3 Y143.857 E4.64923
G1 X102.829 Y143.97 E4.67442
G1 X103.455 Y144.063 E4.70389
G1 X104.032 Y144.113 E4.73086
G1 X104.64 Y144.125 E4.75918
G1 X105.255 Y144.099 E4.78784
G1 X105.847 Y144.037 E4.81556
G1 X106.423 Y143.939 E4.84276
G1 X107.069 Y143.789 E4.87364
G1 X173.835 Y125.9 E8.09221
G1 X174.092 Y125.841 E8.10449
G1 X174.431 Y125.775 E8.12057
G1 X174.992 Y125.709 E8.14687
G1 X175.36 Y125.693 E8.16402
G1 X175.898 Y125.707 E8.18908
G1 X176.253 Y125.742 E8.20569
G1 X176.789 Y125.834 E8.23102
G1 X177.134 Y125.919 E8.24756
G1 X177.646 Y126.085 E8.27262
G1 X177.971 Y126.216 E8.28894
G1 X178.456 Y126.452 E8.31406
G1 X178.77 Y126.634 E8.33095
G1 X179.23 Y126.948 E8.35689
G1 X179.509 Y127.17 E8.37349
G1 X179.908 Y127.538 E8.39877
G1 X180.154 Y127.799 E8.41547
G1 X180.481 Y128.196 E8.43942
G1 X180.681 Y128.476 E8.45544
G1 X180.971 Y128.953 E8.48143
G1 X181.139 Y129.281 E8.49859
G1 X181.356 Y129.792 E8.52444
G1 X181.47 Y130.128 E8.54096
G1 X181.601 Y130.623 E8.56481
G1 X181.668 Y130.967 E8.58113
G1 X181.734 Y131.526 E8.60734
G1 X181.75 Y131.889 E8.62426
G1 X181.736 Y132.428 E8.64936
G1 X181.701 Y132.784 E8.66602
G1 X181.609 Y133.321 E8.69139
G1 X181.524 Y133.666 E8.70793
G1 X181.358 Y134.178 E8.733
G1 X181.227 Y134.503 E8.74931
G1 X180.991 Y134.988 E8.77443
G1 X180.809 Y135.302 E8.79133
G1 X180.495 Y135.762 E8.81726
G1 X180.273 Y136.041 E8.83386
G1 X179.905 Y136.44 E8.85914
G1 X179.644 Y136.686 E8.87584
G1 X179.247 Y137.013 E8.89979
G1 X178.967 Y137.213 E8.91581
G1 X178.491 Y137.503 E8.94177
G1 X178.165 Y137.67 E8.95882
G1 X177.673 Y137.88 E8.98373
G1 X177.343 Y137.994 E8.99999
G1 X177.086 Y138.073 E9.01251
G1 X61.166 Y169.134 E14.60064
G1 X60.89 Y169.197 E14.61383
G1 X60.547 Y169.262 E14.63008
G1 X60.006 Y169.324 E14.65544
G1 X59.642 Y169.34 E14.6724
G1 X59.102 Y169.326 E14.69756
G1 X58.747 Y169.291 E14.71417
G1 X58.211 Y169.199 E14.73949
G1 X57.866 Y169.114 E14.75604
G1 X57.364 Y168.952 E14.7806
G1 X57.039 Y168.822 E14.7969
G1 X56.537 Y168.577 E14.82291
G1 X56.223 Y168.394 E14.83983
G1 X55.777 Y168.09 E14.86496
G1 X55.498 Y167.869 E14.88154
G1 X55.092 Y167.496 E14.90721
G1 X54.846 Y167.235 E14.92391
G1 X54.514 Y166.832 E14.94822
G1 X54.312 Y166.548 E14.96445
G1 X54.025 Y166.074 E14.99025
G1 X53.859 Y165.749 E15.00725
G1 X53.644 Y165.241 E15.03293
G1 X53.53 Y164.905 E15.04945
G1 X53.399 Y164.413 E15.07316
G1 X53.332 Y164.07 E15.08943
G1 X53.266 Y163.508 E15.11578
G1 X53.25 Y163.144 E15.13275
G1 X53.264 Y162.605 E15.15786
G1 X53.299 Y162.249 E15.17451
G1 X53.392 Y161.709 E15.20003
G1 X53.477 Y161.365 E15.21653
G1 X53.64 Y160.86 E15.24124
G1 X53.771 Y160.534 E15.2576
G1 X54.012 Y160.041 E15.28315
G1 X54.194 Y159.728 E15.30001
G1 X54.501 Y159.277 E15.32541
G1 X54.723 Y158.997 E15.34205
G1 X55.095 Y158.593 E15.36762
G1 X55.356 Y158.347 E15.38432
G1 X55.753 Y158.02 E15.40827
G1 X56.033 Y157.82 E15.4243
G1 X56.518 Y157.526 E15.4507
G1 X56.844 Y157.36 E15.46774
G1 X57.318 Y157.158 E15.49173
G1 X57.648 Y157.043 E15.508
G1 X57.914 Y156.96 E15.52098
G1 X73.45 Y152.797 E16.26992
G1 X73.748 Y152.688 E16.2847
G1 X74.047 Y152.476 E16.30176
G1 X74.209 Y152.282 E16.31353
G1 X74.354 Y151.981 E16.32909
G1 X74.406 Y151.731 E16.34098
G1 X74.416 Y151.529 E16.3504
G1 X74.416 Y73.392 E19.98878
G1 X74.469 Y72.761 E20.01827
G1 X74.522 Y72.446 E20.03314
G1 X74.652 Y71.911 E20.05878
G1 X74.929 Y71.266 E20.09147
G1 X75.083 Y70.982 E20.10651
G1 X75.38 Y70.518 E20.13216
G1 X75.812 Y70.032 E20.16244
G0 F6000 X76.087 Y70.323
G1 F1200 X76.326 Y70.097 E20.17776
G1 X76.731 Y69.769 E20.20202
G1 X77.256 Y69.471 E20.23013
G1 X77.551 Y69.337 E20.24522
G1 X78.079 Y69.148 E20.27133
G1 X81.086 Y68.344 E20.41627
G1 X81.651 Y68.243 E20.443
G1 X81.975 Y68.213 E20.45815
G1 X82.496 Y68.205 E20.48241
G1 X83.083 Y68.293 E20.51005
G1 X83.403 Y68.37 E20.52538
G1 X83.8 Y68.499 E20.54481
G1 X84.092 Y68.173 E20.56519
G1 X84.331 Y67.948 E20.58048
G1 X84.737 Y67.621 E20.60475
G1 X85.247 Y67.332 E20.63205
G1 X85.542 Y67.197 E20.64715
G1 X86.079 Y67.004 E20.67372
G1 X89.086 Y66.2 E20.81866
G1 X89.651 Y66.099 E20.84539
G1 X89.975 Y66.069 E20.86054
G1 X90.496 Y66.061 E20.8848
G1 X91.083 Y66.149 E20.91244
G1 X91.403 Y66.226 E20.92777
G1 X91.899 Y66.387 E20.95205
G1 X92.445 Y66.671 E20.98071
G1 X92.727 Y66.852 E20.99631
G1 X93.142 Y67.166 E21.02054
G1 X93.561 Y67.609 E21.04893
G1 X93.765 Y67.868 E21.06429
G1 X94.055 Y68.301 E21.08855
G1 X94.311 Y68.872 E21.11769
G1 X94.419 Y69.188 E21.13324
G1 X94.55 Y69.693 E21.15753
G1 X94.59 Y69.997 E21.17181
G1 X94.604 Y70.16 E21.17943
G1 X94.616 Y70.451 E21.19299
G1 X94.617 Y134.565 E24.17841
G1 X94.639 Y135.235 E24.20962
G1 X94.7 Y135.871 E24.23937
G1 X94.799 Y136.482 E24.26819
G1 X94.939 Y137.096 E24.29752
G1 X95.11 Y137.683 E24.32599
G1 X95.332 Y138.293 E24.35622
G1 X95.569 Y138.837 E24.38385
G1 X95.873 Y139.426 E24.41471
G1 X96.186 Y139.952 E24.44321
G1 X96.551 Y140.481 E24.47314
G1 X96.931 Y140.966 E24.50183
G1 X97.338 Y141.425 E24.53039
G1 X97.798 Y141.878 E24.56045
G1 X98.271 Y142.291 E24.58969
G1 X98.768 Y142.669 E24.61877
G1 X99.286 Y143.017 E24.64783
G1 X99.817 Y143.326 E24.67643
G1 X100.401 Y143.617 E24.70682
G1 X100.97 Y143.858 E24.73559
G1 X101.535 Y144.057 E24.76348
G1 X102.201 Y144.245 E24.79571
G1 X102.764 Y144.366 E24.82252
G1 X103.394 Y144.459 E24.85217
G1 X104.02 Y144.513 E24.88143
G1 X104.649 Y144.526 E24.91073
G1 X105.281 Y144.499 E24.94018
G1 X105.893 Y144.435 E24.96884
G1 X106.515 Y144.329 E24.99822
G1 X107.166 Y144.178 E25.02933
G1 X173.938 Y126.287 E28.24819
G1 X174.168 Y126.234 E28.25918
G1 X174.507 Y126.168 E28.27526
G1 X175.009 Y126.108 E28.29881
G1 X175.377 Y126.092 E28.31596
G1 X175.859 Y126.105 E28.33841
G1 X176.214 Y126.14 E28.35502
G1 X176.693 Y126.223 E28.37766
G1 X177.038 Y126.308 E28.3942
G1 X177.496 Y126.456 E28.41661
G1 X177.821 Y126.587 E28.43293
G1 X178.255 Y126.798 E28.4554
G1 X178.569 Y126.98 E28.4723
G1 X178.981 Y127.261 E28.49552
G1 X179.26 Y127.483 E28.51212
G1 X179.617 Y127.812 E28.53473
G1 X179.863 Y128.073 E28.55143
G1 X180.156 Y128.429 E28.5729
G1 X180.356 Y128.709 E28.58892
G1 X180.615 Y129.135 E28.61214
G1 X180.783 Y129.463 E28.6293
G1 X180.977 Y129.921 E28.65246
G1 X181.091 Y130.257 E28.66898
G1 X181.208 Y130.699 E28.69027
G1 X181.275 Y131.043 E28.70659
G1 X181.335 Y131.543 E28.73004
G1 X181.351 Y131.906 E28.74696
G1 X181.338 Y132.389 E28.76946
G1 X181.303 Y132.745 E28.78611
G1 X181.22 Y133.225 E28.8088
G1 X181.135 Y133.57 E28.82534
G1 X180.987 Y134.028 E28.84775
G1 X180.856 Y134.353 E28.86407
G1 X180.645 Y134.787 E28.88654
G1 X180.463 Y135.101 E28.90344
G1 X180.182 Y135.513 E28.92666
G1 X179.96 Y135.792 E28.94326
G1 X179.631 Y136.149 E28.96587
G1 X179.37 Y136.395 E28.98257
G1 X179.014 Y136.688 E29.00404
G1 X178.734 Y136.888 E29.02006
G1 X178.308 Y137.147 E29.04328
G1 X177.982 Y137.314 E29.06033
G1 X177.542 Y137.502 E29.08261
G1 X177.212 Y137.616 E29.09887
G1 X176.982 Y137.686 E29.11006
G1 X61.062 Y168.747 E34.6982
G1 X60.815 Y168.804 E34.71
G1 X60.472 Y168.869 E34.72626
G1 X59.988 Y168.925 E34.74895
G1 X59.624 Y168.941 E34.76591
G1 X59.141 Y168.928 E34.78841
G1 X58.786 Y168.893 E34.80502
G1 X58.307 Y168.81 E34.82766
G1 X57.962 Y168.725 E34.8442
G1 X57.512 Y168.581 E34.8662
G1 X57.187 Y168.451 E34.8825
G1 X56.738 Y168.232 E34.90577
G1 X56.424 Y168.049 E34.92269
G1 X56.025 Y167.776 E34.9452
G1 X55.746 Y167.555 E34.96177
G1 X55.383 Y167.222 E34.98471
G1 X55.137 Y166.961 E35.00141
G1 X54.84 Y166.6 E35.02318
G1 X54.638 Y166.316 E35.03941
G1 X54.381 Y165.892 E35.06249
G1 X54.215 Y165.567 E35.07949
G1 X54.023 Y165.112 E35.10248
G1 X53.909 Y164.776 E35.119
G1 X53.792 Y164.336 E35.1402
G1 X53.725 Y163.993 E35.15648
G1 X53.665 Y163.49 E35.18007
G1 X53.649 Y163.126 E35.19703
G1 X53.662 Y162.644 E35.21948
G1 X53.697 Y162.288 E35.23614
G1 X53.78 Y161.805 E35.25896
G1 X53.865 Y161.461 E35.27546
G1 X54.011 Y161.009 E35.29758
G1 X54.142 Y160.683 E35.31394
G1 X54.358 Y160.242 E35.3368
G1 X54.54 Y159.929 E35.35366
G1 X54.815 Y159.526 E35.37638
G1 X55.037 Y159.246 E35.39302
G1 X55.369 Y158.884 E35.41589
G1 X55.63 Y158.638 E35.43259
G1 X55.986 Y158.345 E35.45406
G1 X56.266 Y158.145 E35.47008
G1 X56.699 Y157.882 E35.49367
G1 X57.025 Y157.716 E35.51071
G1 X57.449 Y157.535 E35.53218
G1 X57.779 Y157.42 E35.54845
G1 X58.018 Y157.347 E35.56008
G1 X73.545 Y153.186 E36.3086
G1 X73.798 Y153.104 E36.32098
G1 X74.078 Y152.961 E36.33562
G1 X74.325 Y152.764 E36.35033
G1 X74.535 Y152.514 E36.36554
G1 X74.689 Y152.23 E36.38058
G1 X74.781 Y151.926 E36.39537
G1 X74.803 Y151.781 E36.4022
G1 X74.816 Y151.529 E36.41395
G1 X74.816 Y73.392 E40.05233
G1 X74.863 Y72.828 E40.07869
G1 X74.916 Y72.513 E40.09356
G1 X75.042 Y72.007 E40.11784
G1 X75.28 Y71.456 E40.14579
G1 X75.434 Y71.172 E40.16083
G1 X75.717 Y70.735 E40.18508
G1 X76.087 Y70.323 E40.21086
G0 F6000 X76.362 Y70.613
G1 F1200 X76.601 Y70.387 E40.22618
G1 X76.983 Y70.081 E40.24897
G1 X77.421 Y69.836 E40.27234
G1 X77.716 Y69.702 E40.28743
G1 X78.182 Y69.535 E40.31048
G1 X81.189 Y68.731 E40.45541
G1 X81.687 Y68.642 E40.47897
G1 X82.011 Y68.612 E40.49412
G1 X82.501 Y68.607 E40.51694
G1 X82.99 Y68.682 E40.53997
G1 X83.31 Y68.759 E40.5553
G1 X83.775 Y68.912 E40.57809
G1 X83.932 Y68.995 E40.58636
G1 X84.051 Y68.813 E40.59649
G1 X84.367 Y68.465 E40.61838
G1 X84.606 Y68.24 E40.63366
G1 X84.988 Y67.934 E40.65645
G1 X85.414 Y67.696 E40.67917
G1 X85.709 Y67.561 E40.69428
G1 X86.182 Y67.391 E40.71769
G1 X89.189 Y66.587 E40.86262
G1 X89.687 Y66.498 E40.88618
G1 X90.011 Y66.468 E40.90133
G1 X90.501 Y66.463 E40.92415
G1 X90.99 Y66.538 E40.94718
G1 X91.31 Y66.615 E40.96251
G1 X91.775 Y66.768 E40.9853
G1 X92.228 Y67.007 E41.00915
G1 X92.51 Y67.188 E41.02476
G1 X92.899 Y67.485 E41.04755
G1 X93.247 Y67.857 E41.07127
G1 X93.451 Y68.116 E41.08662
G1 X93.721 Y68.524 E41.1094
G1 X93.933 Y69.002 E41.13375
G1 X94.041 Y69.318 E41.1493
G1 X94.191 Y70.031 E41.18322
G1 X94.205 Y70.194 E41.19084
G1 X94.216 Y70.451 E41.20282
G1 X94.217 Y134.578 E44.18884
G1 X94.24 Y135.27 E44.22108
G1 X94.302 Y135.915 E44.25125
G1 X94.405 Y136.554 E44.28139
G1 X94.551 Y137.196 E44.31205
G1 X94.731 Y137.81 E44.34184
G1 X94.954 Y138.424 E44.37226
G1 X95.216 Y139.026 E44.40283
G1 X95.517 Y139.61 E44.43343
G1 X95.85 Y140.169 E44.46372
G1 X96.227 Y140.715 E44.49462
G1 X96.631 Y141.231 E44.52514
G1 X97.041 Y141.693 E44.5539
G1 X97.528 Y142.173 E44.58574
G1 X98.024 Y142.606 E44.6164
G1 X98.524 Y142.987 E44.64567
G1 X99.091 Y143.367 E44.67745
G1 X99.615 Y143.672 E44.70568
G1 X100.232 Y143.98 E44.73779
G1 X100.84 Y144.238 E44.76855
G1 X101.405 Y144.436 E44.79643
G1 X102.098 Y144.632 E44.82996
G1 X102.686 Y144.757 E44.85795
G1 X103.368 Y144.859 E44.89006
G1 X103.992 Y144.912 E44.91922
G1 X104.658 Y144.926 E44.95024
G1 X105.306 Y144.898 E44.98044
G1 X105.94 Y144.832 E45.01012
G1 X106.588 Y144.722 E45.04073
G1 X107.277 Y144.562 E45.07367
G1 X174.042 Y126.673 E48.29218
G1 X174.245 Y126.626 E48.30189
G1 X174.584 Y126.56 E48.31797
G1 X175.027 Y126.508 E48.33874
G1 X175.395 Y126.492 E48.35589
G1 X175.819 Y126.503 E48.37564
G1 X176.174 Y126.538 E48.39225
G1 X176.598 Y126.611 E48.41228
G1 X176.943 Y126.696 E48.42883
G1 X177.347 Y126.827 E48.44861
G1 X177.672 Y126.958 E48.46492
G1 X178.054 Y127.144 E48.48471
G1 X178.368 Y127.326 E48.50161
G1 X178.732 Y127.574 E48.52211
G1 X179.011 Y127.796 E48.53872
G1 X179.326 Y128.086 E48.55865
G1 X179.572 Y128.347 E48.57536
G1 X179.83 Y128.661 E48.59428
G1 X180.03 Y128.941 E48.6103
G1 X180.259 Y129.317 E48.6308
G1 X180.427 Y129.645 E48.64796
G1 X180.598 Y130.049 E48.66839
G1 X180.712 Y130.385 E48.68491
G1 X180.816 Y130.775 E48.7037
G1 X180.883 Y131.119 E48.72002
G1 X180.935 Y131.561 E48.74075
G1 X180.951 Y131.924 E48.75767
G1 X180.94 Y132.35 E48.77751
G1 X180.905 Y132.706 E48.79417
G1 X180.832 Y133.13 E48.8142
G1 X180.747 Y133.475 E48.83074
G1 X180.616 Y133.879 E48.85052
G1 X180.485 Y134.204 E48.86684
G1 X180.299 Y134.586 E48.88662
G1 X180.117 Y134.9 E48.90352
G1 X179.869 Y135.264 E48.92403
G1 X179.647 Y135.543 E48.94063
G1 X179.357 Y135.858 E48.96057
G1 X179.096 Y136.104 E48.97727
G1 X178.782 Y136.362 E48.99619
G1 X178.502 Y136.562 E49.01222
G1 X178.126 Y136.791 E49.03272
G1 X177.8 Y136.958 E49.04977
G1 X177.412 Y137.124 E49.06942
G1 X177.082 Y137.238 E49.08568
G1 X176.878 Y137.3 E49.09561
G1 X60.958 Y168.361 E54.68374
G1 X60.741 Y168.411 E54.69411
G1 X60.398 Y168.476 E54.71037
G1 X59.971 Y168.525 E54.73038
G1 X59.607 Y168.541 E54.74735
G1 X59.181 Y168.53 E54.76719
G1 X58.826 Y168.495 E54.7838
G1 X58.402 Y168.422 E54.80384
G1 X58.057 Y168.337 E54.82038
G1 X57.661 Y168.209 E54.83976
G1 X57.336 Y168.079 E54.85606
G1 X56.939 Y167.886 E54.87661
G1 X56.625 Y167.703 E54.89354
G1 X56.273 Y167.463 E54.91337
G1 X55.994 Y167.242 E54.92995
G1 X55.674 Y166.948 E54.95018
G1 X55.428 Y166.687 E54.96688
G1 X55.166 Y166.368 E54.9861
G1 X54.964 Y166.084 E55.00233
G1 X54.737 Y165.71 E55.0227
G1 X54.571 Y165.385 E55.0397
G1 X54.402 Y164.984 E55.05996
G1 X54.288 Y164.648 E55.07648
G1 X54.185 Y164.259 E55.09522
G1 X54.118 Y163.916 E55.11149
G1 X54.065 Y163.473 E55.13227
G1 X54.049 Y163.109 E55.14923
G1 X54.06 Y162.683 E55.16908
G1 X54.095 Y162.327 E55.18573
G1 X54.169 Y161.901 E55.20587
G1 X54.254 Y161.557 E55.22237
G1 X54.382 Y161.158 E55.24188
G1 X54.513 Y160.832 E55.25824
G1 X54.704 Y160.443 E55.27842
G1 X54.886 Y160.13 E55.29528
G1 X55.128 Y159.774 E55.31532
G1 X55.35 Y159.494 E55.33196
G1 X55.643 Y159.175 E55.35213
G1 X55.904 Y158.929 E55.36883
G1 X56.218 Y158.671 E55.38775
G1 X56.498 Y158.471 E55.40377
G1 X56.881 Y158.239 E55.42463
G1 X57.207 Y158.073 E55.44166
G1 X57.581 Y157.913 E55.4606
G1 X57.911 Y157.798 E55.47687
