;FLAVOR:Marlin
;TIME:2823
;Filament used: 2.67901m
;Layer height: 0.28
;MINX:71.2
;MINY:48.646
;MINZ:0.28
;MAXX:163.8
;MAXY:141.231
;MAXZ:10.92
;Generated with Cura_SteamEngine 4.8.0
M140 S65
M105
M190 S65
M104 S200
M105
M109 S200
M82 ;absolute extrusion mode
; Ender 3 Custom Start G-code
G92 E0 ; Reset Extruder
G28 ; Home all axes
G1 Z2.0 F3000 ; Move Z Axis up little to prevent scratching of Heat Bed
G1 X0.1 Y20 Z0.3 F5000.0 ; Move to start position
G1 X0.1 Y200.0 Z0.3 F1500.0 E15 ; Draw the first line
G1 X0.4 Y200.0 Z0.3 F5000.0 ; Move to side a little
G1 X0.4 Y20 Z0.3 F1500.0 E30 ; Draw the second line
G92 E0 ; Reset Extruder
G1 Z2.0 F3000 ; Move Z Axis up little to prevent scratching of Heat Bed
G1 X5 Y20 Z0.3 F5000.0 ; Move over to prevent blob squish
G92 E0
G92 E0
G1 F1500 E-6.5
;LAYER_COUNT:39
;LAYER:0
M107
G0 F6000 X72.835 Y83.548 Z0.28
;TYPE:SKIRT
G1 F1500 E0
G1 F1200 X73.262 Y83.199 E0.02568
G1 X73.874 Y82.849 E0.05851
G1 X74.169 Y82.715 E0.07359
G1 X74.758 Y82.504 E0.10273
G1 X150.253 Y62.277 E3.74208
G1 X150.51 Y62.184 E3.7548
G1 X150.768 Y62.019 E3.76906
G1 X150.983 Y61.784 E3.7839
G1 X151.123 Y61.51 E3.79822
G1 X151.193 Y61.195 E3.81325
G1 X151.2 Y61.028 E3.82103
G1 X151.2 Y54.931 E4.10493
G1 X151.208 Y54.691 E4.11612
G1 X151.227 Y54.391 E4.13011
G1 X151.286 Y53.922 E4.15212
G1 X151.343 Y53.622 E4.16634
G1 X151.447 Y53.205 E4.18635
G1 X151.536 Y52.918 E4.20035
G1 X151.705 Y52.473 E4.22251
G1 X151.829 Y52.2 E4.23647
G1 X152.054 Y51.777 E4.25878
G1 X152.213 Y51.519 E4.27289
G1 X152.459 Y51.167 E4.29289
G1 X152.645 Y50.93 E4.30692
G1 X152.947 Y50.589 E4.32813
G1 X153.16 Y50.376 E4.34216
G1 X153.517 Y50.061 E4.36433
G1 X153.758 Y49.874 E4.37853
G1 X154.129 Y49.62 E4.39947
G1 X154.385 Y49.466 E4.41338
G1 X154.78 Y49.259 E4.43414
G1 X155.048 Y49.138 E4.44783
G1 X155.51 Y48.964 E4.47082
G1 X155.807 Y48.874 E4.48527
G1 X156.236 Y48.771 E4.50582
G1 X156.536 Y48.717 E4.52001
G1 X156.981 Y48.664 E4.54088
G1 X157.28 Y48.646 E4.55483
G1 X157.749 Y48.647 E4.57666
G1 X158.048 Y48.666 E4.59062
G1 X158.504 Y48.723 E4.61201
G1 X158.804 Y48.779 E4.62622
G1 X159.24 Y48.887 E4.64714
G1 X159.528 Y48.977 E4.66119
G1 X159.966 Y49.144 E4.68302
G1 X160.239 Y49.268 E4.69698
G1 X160.658 Y49.491 E4.71908
G1 X160.915 Y49.649 E4.73313
G1 X161.268 Y49.895 E4.75316
G1 X161.508 Y50.083 E4.76736
G1 X161.865 Y50.4 E4.78959
G1 X162.075 Y50.612 E4.80348
G1 X162.373 Y50.95 E4.82447
G1 X162.56 Y51.19 E4.83863
G1 X162.816 Y51.563 E4.8597
G1 X162.971 Y51.82 E4.87368
G1 X163.18 Y52.219 E4.89465
G1 X163.301 Y52.487 E4.90834
G1 X163.477 Y52.957 E4.93171
G1 X163.566 Y53.253 E4.9461
G1 X163.661 Y53.644 E4.96484
G1 X163.716 Y53.936 E4.97867
G1 X163.775 Y54.411 E5.00096
G1 X163.793 Y54.71 E5.01491
G1 X163.8 Y54.938 E5.02553
G1 X163.8 Y134.947 E8.75109
G1 X163.792 Y135.188 E8.76231
G1 X163.773 Y135.487 E8.77627
G1 X163.714 Y135.955 E8.79823
G1 X163.657 Y136.255 E8.81245
G1 X163.553 Y136.672 E8.83246
G1 X163.464 Y136.959 E8.84645
G1 X163.295 Y137.404 E8.86862
G1 X163.171 Y137.677 E8.88258
G1 X162.946 Y138.1 E8.90489
G1 X162.787 Y138.358 E8.919
G1 X162.541 Y138.71 E8.939
G1 X162.355 Y138.947 E8.95303
G1 X162.053 Y139.288 E8.97424
G1 X161.84 Y139.501 E8.98826
G1 X161.483 Y139.816 E9.01043
G1 X161.242 Y140.003 E9.02464
G1 X160.871 Y140.257 E9.04557
G1 X160.615 Y140.411 E9.05948
G1 X160.22 Y140.618 E9.08025
G1 X159.952 Y140.739 E9.09394
G1 X159.49 Y140.913 E9.11693
G1 X159.193 Y141.003 E9.13138
G1 X158.764 Y141.106 E9.15192
G1 X158.464 Y141.16 E9.16612
G1 X158.032 Y141.212 E9.18638
G1 X157.733 Y141.231 E9.20033
G1 X157.238 Y141.231 E9.22338
G1 X156.939 Y141.211 E9.23733
G1 X156.496 Y141.154 E9.25813
G1 X156.196 Y141.098 E9.27234
G1 X155.76 Y140.99 E9.29326
G1 X155.472 Y140.9 E9.30731
G1 X155.033 Y140.732 E9.32919
G1 X154.758 Y140.607 E9.34326
G1 X154.338 Y140.384 E9.3654
G1 X154.083 Y140.227 E9.37935
G1 X153.732 Y139.982 E9.39928
G1 X153.492 Y139.794 E9.41347
G1 X153.135 Y139.477 E9.4357
G1 X152.923 Y139.263 E9.44973
G1 X152.623 Y138.921 E9.47091
G1 X152.438 Y138.683 E9.48495
G1 X152.183 Y138.312 E9.50591
G1 X152.027 Y138.053 E9.51999
G1 X151.819 Y137.656 E9.54086
G1 X151.698 Y137.388 E9.55455
G1 X151.521 Y136.914 E9.57811
G1 X151.433 Y136.62 E9.5924
G1 X151.339 Y136.233 E9.61095
G1 X151.284 Y135.941 E9.62478
G1 X151.225 Y135.467 E9.64703
G1 X151.207 Y135.169 E9.66093
G1 X151.2 Y134.94 E9.6716
G1 X151.2 Y95.306 E11.51712
G1 X151.184 Y94.715 E11.54465
G1 X151.143 Y94.224 E11.56759
G1 X151.072 Y93.715 E11.59152
G1 X150.975 Y93.211 E11.61542
G1 X150.853 Y92.714 E11.63925
G1 X150.695 Y92.2 E11.66429
G1 X150.523 Y91.734 E11.68742
G1 X150.321 Y91.26 E11.71141
G1 X150.095 Y90.805 E11.73507
G1 X149.834 Y90.343 E11.75978
G1 X149.568 Y89.925 E11.78285
G1 X149.262 Y89.498 E11.80731
G1 X148.945 Y89.102 E11.83093
G1 X148.596 Y88.711 E11.85533
G1 X148.254 Y88.367 E11.87792
G1 X147.847 Y88 E11.90344
G1 X147.461 Y87.689 E11.92652
G1 X147.034 Y87.38 E11.95106
G1 X146.607 Y87.105 E11.97471
G1 X146.176 Y86.859 E11.99782
G1 X145.695 Y86.618 E12.02287
G1 X145.241 Y86.42 E12.04594
G1 X144.751 Y86.238 E12.07028
G1 X144.253 Y86.082 E12.09458
G1 X143.746 Y85.953 E12.11894
G1 X143.254 Y85.857 E12.14228
G1 X142.746 Y85.785 E12.16617
G1 X142.268 Y85.743 E12.18851
G1 X141.717 Y85.724 E12.21418
G1 X141.222 Y85.735 E12.23724
G1 X140.695 Y85.774 E12.26185
G1 X140.195 Y85.838 E12.28532
G1 X139.693 Y85.932 E12.3091
G1 X139.171 Y86.055 E12.33407
G1 X112.326 Y93.248 E13.62818
G1 X112.694 Y93.235 E13.64533
G1 X112.96 Y93.235 E13.65771
G1 X113.331 Y93.248 E13.675
G1 X113.574 Y93.265 E13.68634
G1 X113.946 Y93.302 E13.70375
G1 X114.21 Y93.337 E13.71615
G1 X114.579 Y93.4 E13.73358
G1 X114.839 Y93.454 E13.74595
G1 X115.2 Y93.542 E13.76325
G1 X115.44 Y93.609 E13.77485
G1 X115.796 Y93.721 E13.79223
G1 X116.039 Y93.807 E13.80423
G1 X116.387 Y93.943 E13.82163
G1 X116.613 Y94.039 E13.83306
G1 X116.949 Y94.196 E13.85033
G1 X117.192 Y94.321 E13.86306
G1 X117.518 Y94.503 E13.88044
G1 X117.741 Y94.637 E13.89256
G1 X118.054 Y94.841 E13.90995
G1 X118.251 Y94.979 E13.92115
G1 X118.55 Y95.202 E13.93852
G1 X118.759 Y95.369 E13.95098
G1 X119.041 Y95.612 E13.96831
G1 X119.232 Y95.789 E13.98044
G1 X119.497 Y96.051 E13.99779
G1 X119.675 Y96.24 E14.00988
G1 X119.921 Y96.519 E14.0272
G1 X120.078 Y96.708 E14.03864
G1 X120.306 Y97.003 E14.056
G1 X120.465 Y97.226 E14.06875
G1 X120.672 Y97.538 E14.08619
G1 X120.803 Y97.75 E14.09779
G1 X120.988 Y98.073 E14.11513
G1 X121.108 Y98.299 E14.12704
G1 X121.271 Y98.634 E14.14439
G1 X121.541 Y99.375 E14.18111
G1 X121.601 Y99.615 E14.19263
G1 X121.695 Y100.158 E14.21829
G1 X121.695 Y100.365 E14.22793
G1 X141.226 Y95.132 E15.16945
G1 X141.676 Y95.041 E15.19083
G1 X142.064 Y94.986 E15.20908
G1 X142.613 Y94.948 E15.2347
G1 X142.986 Y94.968 E15.2521
G1 X143.384 Y95.009 E15.27073
G1 X143.927 Y95.105 E15.2964
G1 X144.259 Y95.205 E15.31255
G1 X144.639 Y95.339 E15.33131
G1 X145.144 Y95.56 E15.35698
G1 X145.478 Y95.758 E15.37506
G1 X145.812 Y95.98 E15.39373
G1 X146.248 Y96.318 E15.41942
G1 X146.503 Y96.569 E15.43608
G1 X146.775 Y96.864 E15.45477
G1 X147.118 Y97.295 E15.48042
G1 X147.309 Y97.607 E15.49745
G1 X147.504 Y97.961 E15.51627
G1 X147.773 Y98.569 E15.54723
G1 X147.837 Y98.757 E15.55648
G1 X147.911 Y98.999 E15.56826
G1 X149.207 Y103.84 E15.80161
G1 X149.3 Y104.303 E15.8236
G1 X149.354 Y104.694 E15.84198
G1 X149.39 Y105.244 E15.86765
G1 X149.371 Y105.597 E15.88411
G1 X149.331 Y105.992 E15.9026
G1 X149.236 Y106.535 E15.92827
G1 X149.131 Y106.881 E15.9451
G1 X148.996 Y107.261 E15.96388
G1 X148.774 Y107.766 E15.98957
G1 X148.586 Y108.084 E16.00677
G1 X148.366 Y108.417 E16.02535
G1 X148.029 Y108.853 E16.05101
G1 X147.767 Y109.12 E16.06843
G1 X147.47 Y109.393 E16.08722
G1 X147.038 Y109.735 E16.11287
G1 X146.731 Y109.923 E16.12963
G1 X146.377 Y110.118 E16.14845
G1 X145.763 Y110.389 E16.1797
G1 X145.337 Y110.525 E16.20053
G1 X143.718 Y110.958 E16.27856
G1 X143.268 Y111.05 E16.29995
G1 X142.879 Y111.105 E16.31825
G1 X142.329 Y111.142 E16.34391
G1 X141.958 Y111.122 E16.36121
G1 X141.56 Y111.081 E16.37984
G1 X141.017 Y110.985 E16.40552
G1 X140.682 Y110.884 E16.42181
G1 X140.303 Y110.75 E16.44053
G1 X139.799 Y110.529 E16.46616
G1 X139.471 Y110.335 E16.4839
G1 X139.136 Y110.113 E16.50262
G1 X138.7 Y109.776 E16.52827
G1 X138.441 Y109.521 E16.5452
G1 X138.169 Y109.226 E16.56388
G1 X137.826 Y108.795 E16.58953
G1 X137.635 Y108.483 E16.60657
G1 X137.44 Y108.129 E16.62539
G1 X137.178 Y107.535 E16.65562
G1 X133.843 Y108.429 E16.81639
G1 X133.898 Y108.819 E16.83473
G1 X133.936 Y109.368 E16.86035
G1 X133.917 Y109.734 E16.87742
G1 X133.877 Y110.13 E16.89595
G1 X133.782 Y110.673 E16.92162
G1 X133.676 Y111.023 E16.93865
G1 X133.54 Y111.405 E16.95753
G1 X133.318 Y111.909 E16.98318
G1 X133.131 Y112.225 E17.00027
G1 X132.911 Y112.558 E17.01886
G1 X132.574 Y112.994 E17.04452
G1 X132.316 Y113.256 E17.06164
G1 X132.02 Y113.529 E17.08039
G1 X131.589 Y113.873 E17.10607
G1 X131.277 Y114.064 E17.1231
G1 X130.923 Y114.259 E17.14192
G1 X130.309 Y114.53 E17.17317
G1 X129.882 Y114.666 E17.19404
G1 X128.262 Y115.099 E17.27212
G1 X127.813 Y115.191 E17.29346
G1 X127.424 Y115.246 E17.31176
G1 X126.874 Y115.283 E17.33742
G1 X126.512 Y115.264 E17.3543
G1 X126.114 Y115.224 E17.37293
G1 X125.571 Y115.129 E17.3986
G1 X125.219 Y115.023 E17.41572
G1 X124.84 Y114.888 E17.43445
G1 X124.336 Y114.666 E17.46009
G1 X124.012 Y114.473 E17.47765
G1 X123.678 Y114.251 E17.49633
G1 X123.242 Y113.913 E17.52202
G1 X122.992 Y113.667 E17.53835
G1 X122.719 Y113.372 E17.55706
G1 X122.375 Y112.942 E17.58271
G1 X122.18 Y112.624 E17.60008
G1 X121.985 Y112.27 E17.61889
G1 X121.724 Y111.675 E17.64915
G1 X109.695 Y114.899 E18.22904
G1 X109.75 Y115.289 E18.24738
G1 X109.788 Y115.838 E18.273
G1 X109.769 Y116.203 E18.29002
G1 X109.729 Y116.6 E18.3086
G1 X109.634 Y117.143 E18.33427
G1 X109.527 Y117.496 E18.35145
G1 X109.391 Y117.877 E18.37028
G1 X109.168 Y118.382 E18.39599
G1 X108.985 Y118.69 E18.41267
G1 X108.765 Y119.024 E18.43129
G1 X108.43 Y119.461 E18.45693
G1 X108.164 Y119.732 E18.47462
G1 X107.867 Y120.005 E18.4934
G1 X107.435 Y120.347 E18.51906
G1 X107.128 Y120.535 E18.53582
G1 X106.774 Y120.73 E18.55464
G1 X106.166 Y120.999 E18.5856
G1 X105.978 Y121.063 E18.59484
G1 X105.734 Y121.137 E18.60672
G1 X104.114 Y121.57 E18.6848
G1 X103.655 Y121.663 E18.70661
G1 X103.266 Y121.717 E18.72489
G1 X102.717 Y121.753 E18.75051
G1 X102.364 Y121.734 E18.76697
G1 X101.966 Y121.694 E18.7856
G1 X101.423 Y121.599 E18.81127
G1 X101.071 Y121.493 E18.82838
G1 X100.692 Y121.358 E18.84712
G1 X100.188 Y121.136 E18.87276
G1 X99.874 Y120.95 E18.88976
G1 X99.539 Y120.729 E18.90844
G1 X99.103 Y120.393 E18.93408
G1 X98.834 Y120.128 E18.95166
G1 X98.562 Y119.832 E18.97038
G1 X98.22 Y119.4 E18.99603
G1 X98.032 Y119.094 E19.01276
G1 X97.837 Y118.74 E19.03157
G1 X97.575 Y118.147 E19.06176
G1 X94.24 Y119.042 E19.22255
G1 X94.295 Y119.43 E19.2408
G1 X94.333 Y119.979 E19.26642
G1 X94.314 Y120.344 E19.28344
G1 X94.274 Y120.741 E19.30202
G1 X94.179 Y121.284 E19.32769
G1 X94.072 Y121.637 E19.34486
G1 X93.936 Y122.018 E19.3637
G1 X93.713 Y122.523 E19.38941
G1 X93.53 Y122.831 E19.40609
G1 X93.31 Y123.165 E19.42471
G1 X92.975 Y123.602 E19.45035
G1 X92.713 Y123.868 E19.46774
G1 X92.417 Y124.141 E19.48649
G1 X91.986 Y124.485 E19.51217
G1 X91.674 Y124.676 E19.5292
G1 X91.32 Y124.871 E19.54802
G1 X90.706 Y125.142 E19.57927
G1 X90.279 Y125.278 E19.60014
G1 X88.659 Y125.711 E19.67822
G1 X88.2 Y125.804 E19.70003
G1 X87.811 Y125.858 E19.71831
G1 X87.262 Y125.894 E19.74393
G1 X86.909 Y125.875 E19.76039
G1 X86.511 Y125.835 E19.77902
G1 X85.968 Y125.74 E19.80469
G1 X85.616 Y125.634 E19.8218
G1 X85.237 Y125.499 E19.84054
G1 X84.733 Y125.277 E19.86618
G1 X84.415 Y125.088 E19.88341
G1 X84.081 Y124.867 E19.90206
G1 X83.645 Y124.531 E19.92769
G1 X83.385 Y124.274 E19.94471
G1 X83.112 Y123.978 E19.96346
G1 X82.768 Y123.547 E19.98914
G1 X82.577 Y123.235 E20.00617
G1 X82.382 Y122.881 E20.02499
G1 X82.105 Y122.25 E20.05708
G1 X81.976 Y121.842 E20.07701
G1 X80.68 Y117.003 E20.31027
G1 X80.588 Y116.549 E20.33184
G1 X80.533 Y116.158 E20.35023
G1 X80.496 Y115.609 E20.37585
G1 X80.515 Y115.247 E20.39273
G1 X80.555 Y114.851 E20.41126
G1 X80.65 Y114.308 E20.43693
G1 X80.756 Y113.958 E20.45396
G1 X80.891 Y113.579 E20.47269
G1 X81.113 Y113.075 E20.49834
G1 X81.305 Y112.753 E20.51579
G1 X81.526 Y112.42 E20.5344
G1 X81.863 Y111.984 E20.56006
G1 X82.111 Y111.732 E20.57653
G1 X82.407 Y111.458 E20.59531
G1 X82.837 Y111.114 E20.62095
G1 X83.155 Y110.919 E20.63832
G1 X83.509 Y110.724 E20.65714
G1 X84.14 Y110.447 E20.68923
G1 X84.548 Y110.318 E20.70915
G1 X103.904 Y105.132 E21.64224
G1 X103.88 Y105.052 E21.64613
G1 X103.814 Y104.808 E21.6579
G1 X103.73 Y104.446 E21.6752
G1 X103.679 Y104.185 E21.68758
G1 X103.62 Y103.815 E21.70503
G1 X103.589 Y103.566 E21.71671
G1 X103.555 Y103.197 E21.73397
G1 X103.54 Y102.94 E21.74596
G1 X103.531 Y102.567 E21.76333
G1 X103.534 Y102.302 E21.77567
G1 X103.551 Y101.929 E21.79306
G1 X103.571 Y101.673 E21.80501
G1 X103.613 Y101.303 E21.82235
G1 X103.647 Y101.071 E21.83327
G1 X103.712 Y100.703 E21.85067
G1 X103.774 Y100.416 E21.86434
G1 X103.867 Y100.055 E21.8817
G1 X103.936 Y99.82 E21.89311
G1 X104.052 Y99.466 E21.91045
G1 X104.139 Y99.227 E21.9223
G1 X104.279 Y98.88 E21.93972
G1 X104.382 Y98.648 E21.95154
G1 X104.544 Y98.313 E21.96887
G1 X104.668 Y98.078 E21.98124
G1 X104.853 Y97.755 E21.99857
G1 X104.982 Y97.546 E22.01001
G1 X105.188 Y97.235 E22.02738
G1 X105.346 Y97.014 E22.04003
G1 X105.574 Y96.718 E22.05743
G1 X105.729 Y96.53 E22.06877
G1 X105.974 Y96.251 E22.08606
G1 X106.157 Y96.056 E22.09851
G1 X106.423 Y95.793 E22.11593
G1 X106.609 Y95.621 E22.12773
G1 X106.89 Y95.378 E22.14503
G1 X107.104 Y95.206 E22.15781
G1 X107.403 Y94.983 E22.17518
G1 X107.598 Y94.847 E22.18625
G1 X107.912 Y94.642 E22.20371
G1 X108.136 Y94.507 E22.21589
G1 X108.46 Y94.326 E22.23317
G1 X108.629 Y94.238 E22.24204
G1 X77.234 Y102.65 E23.75549
G1 X76.614 Y102.762 E23.78483
G1 X76.291 Y102.793 E23.79994
G1 X75.74 Y102.805 E23.8256
G1 X75.028 Y102.702 E23.8591
G1 X74.708 Y102.624 E23.87444
G1 X74.184 Y102.455 E23.90007
G1 X73.555 Y102.13 E23.93304
G1 X73.273 Y101.949 E23.94865
G1 X72.833 Y101.618 E23.97428
G1 X72.336 Y101.097 E24.00781
G1 X72.132 Y100.837 E24.0232
G1 X71.825 Y100.38 E24.04884
G1 X71.529 Y99.727 E24.08222
G1 X71.421 Y99.413 E24.09768
G1 X71.28 Y98.88 E24.12335
G1 X71.228 Y98.5 E24.14121
G1 X71.214 Y98.336 E24.14888
G1 X71.2 Y98.013 E24.16393
G1 X71.2 Y94.898 E24.30898
G1 X71.253 Y94.266 E24.33851
G1 X71.306 Y93.952 E24.35334
G1 X71.437 Y93.416 E24.37903
G1 X71.713 Y92.773 E24.41161
G1 X71.813 Y92.589 E24.42137
G1 X71.526 Y91.957 E24.45369
G1 X71.418 Y91.641 E24.46924
G1 X71.278 Y91.108 E24.4949
G1 X71.228 Y90.737 E24.51233
G1 X71.214 Y90.574 E24.51995
G1 X71.2 Y90.249 E24.53509
G1 X71.2 Y87.134 E24.68014
G1 X71.253 Y86.503 E24.70963
G1 X71.306 Y86.188 E24.7245
G1 X71.436 Y85.653 E24.75014
G1 X71.713 Y85.008 E24.78282
G1 X71.867 Y84.724 E24.79787
G1 X72.164 Y84.26 E24.82352
G1 X72.596 Y83.774 E24.8538
G1 X72.835 Y83.548 E24.86912
G0 F6000 X73.11 Y83.839
G1 F1200 X73.515 Y83.511 E24.89338
G1 X74.04 Y83.213 E24.92149
G1 X74.335 Y83.079 E24.93658
G1 X74.861 Y82.891 E24.96259
G1 X150.351 Y62.665 E28.6017
G1 X150.679 Y62.547 E28.61793
G1 X150.91 Y62.414 E28.63035
G1 X151.129 Y62.23 E28.64366
G1 X151.312 Y62.011 E28.65695
G1 X151.446 Y61.775 E28.66959
G1 X151.543 Y61.508 E28.68282
G1 X151.59 Y61.243 E28.69535
G1 X151.6 Y61.023 E28.70561
G1 X151.6 Y54.931 E28.98927
G1 X151.607 Y54.716 E28.99929
G1 X151.626 Y54.416 E29.01329
G1 X151.679 Y53.996 E29.033
G1 X151.736 Y53.696 E29.04722
G1 X151.829 Y53.324 E29.06507
G1 X151.918 Y53.037 E29.07907
G1 X152.069 Y52.638 E29.09893
G1 X152.193 Y52.365 E29.11289
G1 X152.395 Y51.987 E29.13285
G1 X152.554 Y51.729 E29.14696
G1 X152.773 Y51.414 E29.16483
G1 X152.959 Y51.177 E29.17885
G1 X153.23 Y50.872 E29.19785
G1 X153.443 Y50.659 E29.21188
G1 X153.763 Y50.377 E29.23174
G1 X154.004 Y50.19 E29.24594
G1 X154.335 Y49.963 E29.26463
G1 X154.591 Y49.809 E29.27854
G1 X154.945 Y49.623 E29.29716
G1 X155.213 Y49.502 E29.31086
G1 X155.626 Y49.347 E29.3314
